startup/config/Icons/pull.svg

<svg viewBox="0 0 24 24" xml:space="preserve" style="fill-rule:evenodd;clip-rule:evenodd;stroke-linejoin:round;stroke-miterlimit:2" xmlns="http://www.w3.org/2000/svg"><path style="fill:none;fill-rule:nonzero" d="M0 0h24v24H0z"/><path d="M5 4h14v2H5V4Zm0 10h4v6h6v-6h4l-7-7-7 7Zm8-2v6h-2v-6H9.83L12 9.83 14.17 12H13Z" style="fill:#57a886;fill-rule:nonzero;fill-opacity:1" transform="rotate(-180 12 12)"/></svg>

<?xml version="1.0" encoding="UTF-8" standalone="no"?>
<!DOCTYPE svg PUBLIC "-//W3C//DTD SVG 1.1//EN" "http://www.w3.org/Graphics/SVG/1.1/DTD/svg11.dtd">
<svg width="100%" height="100%" viewBox="0 0 24 24" version="1.1" xmlns="http://www.w3.org/2000/svg" xmlns:xlink="http://www.w3.org/1999/xlink" xml:space="preserve" xmlns:serif="http://www.serif.com/" style="fill-rule:evenodd;clip-rule:evenodd;stroke-linejoin:round;stroke-miterlimit:2;">
    <rect x="0" y="0" width="24" height="24" style="fill:none;fill-rule:nonzero;"/>
    <g transform="matrix(-1,-1.22465e-16,1.22465e-16,-1,24,24)">
        <path d="M5,4L19,4L19,6L5,6L5,4ZM5,14L9,14L9,20L15,20L15,14L19,14L12,7L5,14ZM13,12L13,18L11,18L11,12L9.83,12L12,9.83L14.17,12L13,12Z" style="fill:rgb(102,187,106);fill-rule:nonzero;"/>
    </g>
</svg>
